docs/okidoc.svg

<svg height="2666.6667" viewBox="693.7167358398438 320.8485412597656 1279.233154296875 2024.9686279296875"
     width="2666.6667" xmlns="http://www.w3.org/2000/svg">
    <clipPath id="a">
        <path d="m0 2000h2000v-2000h-2000z"></path>
    </clipPath>
    <g clip-path="url(#a)" fill-rule="evenodd" transform="matrix(1.3333333 0 0 -1.3333333 0 2666.6667)">
        <path d="m0 0-36.447 9.419-236.049-923.701 236.705 14.011 170.94 670.935c26.009 100.649-34.5 203.327-135.149 229.336"
              fill="#2e39f6" transform="translate(810.1079 1740.958)"></path>
        <path d="m0 0-32.802 18.478-419.89-746.51 253.054-5.351 271.261 477.006c51.019 90.577 18.952 205.361-71.623 256.377"
              fill="#444ff6" transform="translate(1085.4277 1740.8857)"></path>
        <path d="m0 0c-124.719 61.116-275.367 9.557-336.483-115.162-61.116-124.716-9.558-275.365 115.16-336.482 124.719-61.116 275.367-9.558 336.483 115.161 61.116 124.717 9.558 275.367-115.16 336.483m368.875-239.136-466.227-466.229c-75.232-2.153-152.074 13.389-224.353 48.809-237.857 116.559-336.192 403.872-219.63 641.732 33.607 68.583 81.43 125.536 138.15 169.113l657.256 552.798 24.662-28.441c68.101-78.543 59.637-197.422-18.906-265.524l-219.549-183.724c20.295-6.755 40.379-14.916 60.118-24.588 174.072-85.302 273.397-262.053 268.479-443.946"
              fill="#646ef6" transform="translate(1110.6631 946.1982)"></path>
        <path d="m0 0c19.804 40.413 27.709 83.542 25.195 125.472l224.396-29.954-463.411-463.411-35.008 228.122c100.887-9.246 201.595 43.384 248.828 139.771"
              fill="#525cf6" transform="translate(1229.5469 609.7148)"></path>
        <path d="m0 0h-1.122v463.41h463.411v-1.118z" fill="#2e39f6" transform="translate(1016.8486 241.8223)"></path>
    </g>
</svg>

<?xml version="1.0" encoding="UTF-8" standalone="no"?>
<svg
   xmlns:dc="http://purl.org/dc/elements/1.1/"
   xmlns:cc="http://creativecommons.org/ns#"
   xmlns:rdf="http://www.w3.org/1999/02/22-rdf-syntax-ns#"
   xmlns:svg="http://www.w3.org/2000/svg"
   xmlns="http://www.w3.org/2000/svg"
   viewBox="0 0 2666.6667 2666.6667"
   height="2666.6667"
   width="2666.6667"
   xml:space="preserve"
   id="svg2"
   version="1.1"><metadata
     id="metadata8"><rdf:RDF><cc:Work
         rdf:about=""><dc:format>image/svg+xml</dc:format><dc:type
           rdf:resource="http://purl.org/dc/dcmitype/StillImage" /></cc:Work></rdf:RDF></metadata><defs
     id="defs6"><clipPath
       id="clipPath18"
       clipPathUnits="userSpaceOnUse"><path
         id="path16"
         d="M 0,2000 H 2000 V 0 H 0 Z" /></clipPath></defs><g
     transform="matrix(1.3333333,0,0,-1.3333333,0,2666.6667)"
     id="g10"><g
       id="g12"><g
         clip-path="url(#clipPath18)"
         id="g14"><g
           transform="translate(810.1079,1740.958)"
           id="g20"><path
             id="path22"
             style="fill:#2e39f6;fill-opacity:1;fill-rule:evenodd;stroke:none"
             d="m 0,0 -36.447,9.419 -236.049,-923.701 236.705,14.011 170.94,670.935 C 161.158,-128.687 100.649,-26.009 0,0" /></g><g
           transform="translate(1085.4277,1740.8857)"
           id="g24"><path
             id="path26"
             style="fill:#444ff6;fill-opacity:1;fill-rule:evenodd;stroke:none"
             d="m 0,0 -32.802,18.478 -419.89,-746.51 253.054,-5.351 271.261,477.006 C 122.642,-165.8 90.575,-51.016 0,0" /></g><g
           transform="translate(1110.6631,946.1982)"
           id="g28"><path
             id="path30"
             style="fill:#646ef6;fill-opacity:1;fill-rule:evenodd;stroke:none"
             d="m 0,0 c -124.719,61.116 -275.367,9.557 -336.483,-115.162 -61.116,-124.716 -9.558,-275.365 115.16,-336.482 124.719,-61.116 275.367,-9.558 336.483,115.161 C 176.276,-211.766 124.718,-61.116 0,0 M 368.875,-239.136 -97.352,-705.365 c -75.232,-2.153 -152.074,13.389 -224.353,48.809 -237.857,116.559 -336.192,403.872 -219.63,641.732 33.607,68.583 81.43,125.536 138.15,169.113 l 657.256,552.798 24.662,-28.441 C 346.834,600.103 338.37,481.224 259.827,413.122 L 40.278,229.398 c 20.295,-6.755 40.379,-14.916 60.118,-24.588 174.072,-85.302 273.397,-262.053 268.479,-443.946" /></g><g
           transform="translate(1229.5469,609.7148)"
           id="g32"><path
             id="path34"
             style="fill:#525cf6;fill-opacity:1;fill-rule:evenodd;stroke:none"
             d="M 0,0 C 19.804,40.413 27.709,83.542 25.195,125.472 L 249.591,95.518 -213.82,-367.893 -248.828,-139.771 C -147.941,-149.017 -47.233,-96.387 0,0" /></g><g
           transform="translate(1016.8486,241.8223)"
           id="g36"><path
             id="path38"
             style="fill:#2e39f6;fill-opacity:1;fill-rule:evenodd;stroke:none"
             d="m 0,0 h -1.122 v 463.41 h 463.411 v -1.118 z" /></g></g></g></g></svg>
